X:409
T:Sleep With One Eye Open
C:Jenni Lyn Gardner
N:Transcribed by Larry Tanner
R:bluegrass
L:1/8
Q:1/4=200
M:4/4
K:C
"A"z2 AA {c}^ce =cB | A2 AB ce ^fe | ^fa aa ze (3fgf | Ac ^ce =cB A^F | A^F EA EF A2 | 
[eB]^c z2 cB A^F | ^f^c ec =cB A^c | "E"B^F ^GB GF E^C | E2 ^fe ^cB A^F | "A"A2 AB ce ^fe | 
^fa aa za aa | ac' ^c'a2e ^cB | A2 [A2E2] [A2^F2] [A2E2] | {c}^c2 e2 d2 e2 | {d}ea ge dA c^c | 
A3c ^ce ^fe | a8 | z8 | z8 | z8 | z8 | z8 | z8 | z8 | 


